Origami/48x48/apps/nip2.svg

<svg width="48" height="48" version="1" xmlns="http://www.w3.org/2000/svg">
 <path d="m6 7c-1.108 0-2 0.892-2 2v24 8c0 1.108 0.892 2 2 2h36c1.108 0 2-0.892 2-2v-8-24c0-1.108-0.892-2-2-2h-36z" style="opacity:.2"/>
 <path d="m6 6c-1.108 0-2 0.892-2 2v24 8c0 1.108 0.892 2 2 2h36c1.108 0 2-0.892 2-2v-8-24c0-1.108-0.892-2-2-2h-36z" style="fill:#cccccc"/>
 <rect x="7" y="9" width="34" height="30" style="fill:#494949"/>
 <path d="m7 23s3-3 7-3 7.123433 3.071764 11 3c3.876567-0.07176 7-8 10-8s6 2 6 2v21h-34z" style="opacity:.1"/>
 <path d="m7 24s3-3 7-3 7.123433 3.071764 11 3c3.876567-0.07176 7-8 10-8s6 2 6 2v21h-34z" style="fill:#4966ff"/>
 <path d="m7 27s1 4 3 4 5-4 9-4 10 4 13 4 9-4 9-4v11h-34z" style="opacity:.1"/>
 <path d="m7 28s1 4 3 4 5-4 9-4 10 4 13 4 9-4 9-4v11h-34z" style="fill:#19c171"/>
 <path d="m35 16c-3 0-6.123433 7.92824-10 8s-7-3-11-3-7 3-7 3v1s3-3 7-3 7.123433 3.071764 11 3c3.876567-0.07176 7-8 10-8s6 2 6 2v-1s-3-2-6-2z" style="fill:#ffffff;opacity:.1"/>
 <path d="m7 28v1s1 4 3 4 5-4 9-4 10 4 13 4 9-4 9-4v-1s-6 4-9 4-9-4-13-4-7 4-9 4-3-4-3-4z" style="fill:#ffffff;opacity:.1"/>
 <path d="m6 6c-1.108 0-2 0.892-2 2v1c0-1.108 0.892-2 2-2h36c1.108 0 2 0.892 2 2v-1c0-1.108-0.892-2-2-2h-36z" style="fill:#ffffff;opacity:.1"/>
</svg>

<svg xmlns="http://www.w3.org/2000/svg" width="48" height="48" version="1">
 <path style="opacity:0.2" d="M 6,7 C 4.892,7 4,7.892 4,9 l 0,24 0,8 c 0,1.108 0.892,2 2,2 l 36,0 c 1.108,0 2,-0.892 2,-2 L 44,33 44,9 C 44,7.892 43.108,7 42,7 L 6,7 Z"/>
 <path style="fill:#cccccc" d="M 6,6 C 4.892,6 4,6.892 4,8 l 0,24 0,8 c 0,1.108 0.892,2 2,2 l 36,0 c 1.108,0 2,-0.892 2,-2 L 44,32 44,8 C 44,6.892 43.108,6 42,6 L 6,6 Z"/>
 <rect style="fill:#494949" width="34" height="30" x="7" y="9"/>
 <path style="opacity:0.1" d="m 7,23 c 0,0 3,-3 7,-3 4,0 7.123433,3.071764 11,3 3.876567,-0.07176 7,-8 10,-8 3,0 6,2 6,2 l 0,21 -34,0 z"/>
 <path style="fill:#4966ff" d="m 7,24 c 0,0 3,-3 7,-3 4,0 7.123433,3.071764 11,3 3.876567,-0.07176 7,-8 10,-8 3,0 6,2 6,2 l 0,21 -34,0 z"/>
 <path style="opacity:0.1" d="m 7,27 c 0,0 1,4 3,4 2,0 5,-4 9,-4 4,0 10,4 13,4 3,0 9,-4 9,-4 l 0,11 -34,0 z"/>
 <path style="fill:#19c171" d="m 7,28 c 0,0 1,4 3,4 2,0 5,-4 9,-4 4,0 10,4 13,4 3,0 9,-4 9,-4 l 0,11 -34,0 z"/>
 <path style="opacity:0.1;fill:#ffffff" d="m 35,16 c -3,0 -6.123433,7.92824 -10,8 -3.876567,0.07176 -7,-3 -11,-3 -4,0 -7,3 -7,3 l 0,1 c 0,0 3,-3 7,-3 4,0 7.123433,3.071764 11,3 3.876567,-0.07176 7,-8 10,-8 3,0 6,2 6,2 l 0,-1 c 0,0 -3,-2 -6,-2 z"/>
 <path style="opacity:0.1;fill:#ffffff" d="M 7 28 L 7 29 C 7 29 8 33 10 33 C 12 33 15 29 19 29 C 23 29 29 33 32 33 C 35 33 41 29 41 29 L 41 28 C 41 28 35 32 32 32 C 29 32 23 28 19 28 C 15 28 12 32 10 32 C 8 32 7 28 7 28 z"/>
 <path style="fill:#ffffff;opacity:0.1" d="M 6 6 C 4.892 6 4 6.892 4 8 L 4 9 C 4 7.892 4.892 7 6 7 L 42 7 C 43.108 7 44 7.892 44 9 L 44 8 C 44 6.892 43.108 6 42 6 L 6 6 z"/>
</svg>
